X:1
T:Echoes from Heaven
T:Echoes from Heaven
T:Barney E. Warren, pub.1911
T:B. E. W.
T:PUBLIC DOMAIN
T:PUBLIC DOMAIN
C:Barney E. Warren, pub.1911
Z:B. E. W.
Z:PUBLIC DOMAIN
%%score ( 1 2 ) ( 3 4 )
L:1/8
Q:1/4=80
M:3/4
K:Db
V:1 treble nm="Soprano"
V:2 treble 
V:3 bass nm="Bass"
V:4 bass 
V:1
"^~P19" [DF] [EG] | [FA]3 [FA] [FA] [FA] | [Fd] [FA]3 [DF] [FA] | [EG]3 [EG] [EG] [DF] | [CE]4 | %5
w: 1.~Far a-|way a- mong the|an- gels, In the|sweet ce- les- tial|bow’rs,|
w: 2.~How they|stir the soul with|rap- ture! How they|thrill the chords of|love!|
w: 3.~Far a-|way in worlds of|glo- ry, We can|hear the mu- sic|sweet,|
w: 4.~Far a-|way in fields of|glo- ry We shall|meet, and God a-|dore;|
 [CE] [CE] | [DF]3 [DA] [Fd] [FA] | [Gc] [GB]3 [DG] [GB] | [FA]3 [Fd] [Gc] [Ge] | [Fd]4 || %10
w: Start the|songs whose e- choes|glad- den As they|greet this world of|ours.|
w: How they|wake the songs of|prais- es, Float- ing|up to worlds a-|bove!|
w: Where the|streams of life are|flow- ing All a-|long the gold- en|street.|
w: And the|sweet re- demp- tion|sto- ry We shall|sing for- ev- er-|more.|
[M:9/8][Q:3/8=80]"^Refrain""^~P48"[Q:3/8=80] [DF]2 [EG] | [FA]3 [FA]3 (([GB] [FA])) [=E=G] | %12
w: Hear the|e- choes filled * with|
w: ||
w: ||
w: ||
 [FA]3 [DF]3 (([FA] [EG])) [DF] | [CE]3 [CE]3 (([CE] [DF])) [EG] | [DF]6 [FA]2 A | %15
w: glo- ry, From * the|bright an- gel- _ ic|throng; Oh, the|
w: |||
w: |||
w: |||
 [GB]3 [GB]3 (B c)[=Gd] | d3 [_Gc]3 [GB]2 [FA] | [Af]3 [Af]3 (f e)[Ad] | %18
w: pure se- raph- _ ic|mu- sic Finds an|e- cho in * our|
w: |||
w: |||
w: |||
 (([Bd]3 [GB]3)) (G A)[GB] | [FA]3 [FA]3"^accel." A2 [GA] | A6 |] %21
w: song, * While * it|gent- ly rolls a-|long|
w: |||
w: |||
w: |||
V:2
 x2 | x6 | x6 | x6 | x4 | x2 | x6 | x6 | x6 | x4 ||[M:9/8] x3 | x9 | x9 | x9 | z6 z2 A | %15
w: |||||||||||||||
 z3 z3 =G2 z | (A2 =G) z3 z3 | z3 z3 A2 z | z3 z3 D2 z | z3 z3 (E F) z | (F =E) G F3 |] %21
w: |||||* * (a- long).|
V:3
"^~P19" [D,A,] [D,A,] | [D,D]3 [D,D] [D,D] [D,D] | [D,D] [D,D]3 [D,A,] [D,A,] | %3
 [A,,A,]3 [A,,A,] [A,,A,] [A,,A,] | [A,,A,]4 | [A,,A,] [A,,A,] | [D,A,]3 [D,F,] [D,A,] [D,D] | %7
 [G,D] [G,D]3 [G,B,] [G,D] | [A,D]3 [A,D] [A,,A,] [A,,A,] | [D,A,]4 || %10
[M:9/8]"^~P48" [D,A,]2 [D,A,] | [D,D]3 [D,D]3 [D,D]2 [D,D] | [D,D]3 [D,A,]3 [D,A,]2 [D,A,] | %13
 [A,,A,]3 [A,,A,]3 [A,,A,]2 [A,,A,] | [D,A,]6 [D,D]2 [F,D] | [G,D]3 [G,D]3 [E,E]2 [E,E] | %16
 [A,E]3 [A,E]3 [A,D]2 [A,C] | [D,D]3 [D,D]3 (([D,D] [E,C])) [F,D] | [G,D]6 [G,B,]2 [G,D] | %19
 [A,D]3 [A,D]3"^accel." (C D)[A,,E] | [D,D]6 |] %21
V:4
 x2 | x6 | x6 | x6 | x4 | x2 | x6 | x6 | x6 | x4 ||[M:9/8] x3 | x9 | x9 | x9 | x9 | x9 | x9 | x9 | %18
 x9 | z3 z3 A,,2 z | x6 |] %21

